svgs/chessclock.svg

<svg xmlns="http://www.w3.org/2000/svg" width="192" height="192" viewBox="0 0 192 192"><g fill="none" stroke="#000" stroke-linecap="round" stroke-linejoin="round"><path stroke-width="8" d="M60.006 137.23a58.688 59.918 0 0 0 71.988-.003M144.2 55.753a58.687 59.917 0 0 0-96.402-.004m48.2 34.169-3.487-34.05m-28.646-4.797 32.133 38.847m-71.382 3.725h35.258" class="a"/><path stroke-width="2.031" d="M4.79 40.564h10.835L13.24 23.427H7.176z" class="a" transform="matrix(3.8974 0 0 3.9791 2.462 .423)"/><path stroke-width="8" d="M21.129 161.83h42.232M22.757 149.9h38.977m-7.67-56.257 10.43-30.589a37.881 38.675 0 0 0-22.249-7.766A37.88 38.674 0 0 0 20 63.051l10.428 30.592zM42.245 55.288V32.315M30.994 42.338h22.502m78.624 51.305h35.26" class="a"/><path stroke-width="2.031" d="M32.374 40.564h10.835l-2.385-17.137H34.76z" class="a" transform="matrix(3.8974 0 0 3.9791 2.462 .423)"/><path stroke-width="8" d="M128.64 161.83h42.23m-40.61-11.93h38.98m-7.67-56.257 10.432-30.589a36.342 37.104 0 0 0-44.494-.003l10.43 30.592zm-11.82-38.355v-7.165" class="a"/></g></svg>

<svg xmlns="http://www.w3.org/2000/svg" width="192" height="192" viewBox="0 0 192 192"><g fill="none" stroke="#000" stroke-linecap="round" stroke-linejoin="round"><g stroke-width="8"><path d="M60.006 137.23a58.688 59.918 0 0 0 71.988-.003M144.2 55.753a58.687 59.917 0 0 0-96.402-.004M95.998 89.918l-3.487-34.05M63.865 51.071l32.133 38.847M24.616 93.643h35.258" class="a"/></g><path stroke-width="2.031" d="M4.79 40.564h10.835L13.24 23.427H7.176z" class="a" transform="matrix(3.8974 0 0 3.9791 2.462 .423)"/><g stroke-width="8"><path d="M21.129 161.83h42.232M22.757 149.9h38.977M54.064 93.643l10.43-30.589a37.881 38.675 0 0 0-22.249-7.766A37.88 38.674 0 0 0 20 63.051l10.428 30.592zM42.245 55.288V32.315M30.994 42.338h22.502M132.12 93.643h35.26" class="a"/></g><path stroke-width="2.031" d="M32.374 40.564h10.835l-2.385-17.137H34.76z" class="a" transform="matrix(3.8974 0 0 3.9791 2.462 .423)"/><g stroke-width="8"><path d="M128.64 161.83h42.23M130.26 149.9h38.98M161.57 93.643l10.432-30.589a36.342 37.104 0 0 0-44.494-.003l10.43 30.592zM149.75 55.288v-7.165" class="a"/></g></g></svg>
